X: 1
T: Wat Ye Wha I Met The Streen
R: reel
M: 4/4
L: 1/8
K: Bdor
|:"Bm"{A}B2 cB ce {e}f2|"A" (3:1 efe c ac c3/2 B/A F|"F#m"A3/2 B<c B/ AB c/e3/2|"E5" {F}E3/2 E/ FA "B5 "{B}cB B2:|
|:"Bm"b3/2 c'/b a b/c'/d'/c'/ b2|"A" a3/2 b/ a/b/c'/a/ c'/b/a/f/ "A/C#" ea|"D" {e}f2 "A/C#"(3:1 efe c "F#5" f/e/f/g/ a/F3/2|"E" {F}E3/2 E/ FA "B5" {B}cBB2:|

